X: 15557
T: Gloomy Winter
R: strathspey
M: 4/4
K: Aminor
|:A2 AB|AG E2|c>B ce|dc BG|
A2 AB|AG E2|DE EG|A2- A2:|
|:cd/e/ g2|Bc de/d/|cB Ac|Be e2|
ed BG|GA Bd|cA BG|A2- A2:|

